X: 77
T: Missa Incessament / Agnus Dei
N: Derived from Rue1016e-Missa_Incessament-Agnus.krn
C: Pierre de la Rue
%%abc-version 2.0
%%abcx-abcm2ps-target-version 5.9.1 (29 Sep 2008)
%%abc-creator hum2abc beta
%%abcx-conversion-date 2019/02/17 08:01:12
%%abc-edited-by Jesse Rodin
%%abc-edited-by Chris Gage 10-23-2012
%%abcx-initial-encoding-date 2012/11/11/
%%humdrum-veritas 3493690166
%%humdrum-veritas-data 3232732909
%%linebreak <none>
%%barnumbers 0
L: 1/4
M: 2/1
Q: 1/2=120
V: 1 clef=treble
V: 2 clef=treble-8
V: 3 clef=treble-8
V: 4 clef=bass
V: 5 clef=bass
K: C
[V:1] G8 | 
[V:2] z8 | 
[V:3] z8 | 
[V:4] z8 | 
[V:5] z8 | 
[V:1] E3FD4 | 
[V:2] z8 | 
[V:3] z8 | 
[V:4] z8 | 
[V:5] G,8 | 
[V:1] C4F4 | 
[V:2] z8 | 
[V:3] z8 | 
[V:4] z8 | 
[V:5] E,3F,D,4 | 
[V:1] E3FG2A2- | 
[V:2] z8 | 
[V:3] z8 | 
[V:4] C8 | 
[V:5] C,3D,E,2F,2- | 
[V:1] AGF2E4 | 
[V:2] z8 | 
[V:3] z8 | 
[V:4] A,3B,G,4 | 
[V:5] F,E,D,4C,2 | 
[V:1] D8 | 
[V:2] z8 | 
[V:3] d8 | 
[V:4] F,3G,A,2B,2- | 
[V:5] D,8- | 
[V:1] z4A4 | 
[V:2] z8 | 
[V:3] B3cA4 | 
[V:4] B,A,G,4^F,2 | 
[V:5] D,8 | 
[V:1] B3cded2- | 
[V:2] g8 | 
[V:3] G8 | 
[V:4] G,8- | 
[V:5] z8 | 
[V:1] dcc4B2 | 
[V:2] e3fd4 | 
[V:3] z4G4 | 
[V:4] G,8 | 
[V:5] z8 | 
[V:1] c8 | 
[V:2] c3de2f2- | 
[V:3] A8 | 
[V:4] z8 | 
[V:5] z8 | 
[V:1] A3BG4 | 
[V:2] fed4^c2 | 
[V:3] F3GE4 | 
[V:4] z8 | 
[V:5] z8 | 
[V:1] F3GA2_B2- | 
[V:2] d8 | 
[V:3] D8- | 
[V:4] z8 | 
[V:5] z8 | 
[V:1] BAG4^F2 | 
[V:2] B3cA4 | 
[V:3] D8 | 
[V:4] z8 | 
[V:5] z8 | 
[V:1] G8- | 
[V:2] G8 | 
[V:3] z8 | 
[V:4] z8 | 
[V:5] G,8 | 
[V:1] G8 | 
[V:2] z4g4 | 
[V:3] z4G4 | 
[V:4] z8 | 
[V:5] G,4G,4 | 
[V:1] z8 | 
[V:2] g4e4 | 
[V:3] G4G4 | 
[V:4] C8 | 
[V:5] C,4C,4 | 
[V:1] z8 | 
[V:2] c4A4 | 
[V:3] A6G2 | 
[V:4] C4C4 | 
[V:5] F,6E,2 | 
[V:1] z8 | 
[V:2] _B2AGFGAF | 
[V:3] F2EDC4 | 
[V:4] F,4F,4 | 
[V:5] D,2C,B,,A,,4 | 
[V:1] d8 | 
[V:2] G8 | 
[V:3] D8- | 
[V:4] _B,6A,2 | 
[V:5] G,,8- | 
[V:1] d4d4 | 
[V:2] z4g4 | 
[V:3] D8 | 
[V:4] G,2F,E,D,4 | 
[V:5] G,,8 | 
[V:1] G4G4 | 
[V:2] g2g2e4 | 
[V:3] z4G4 | 
[V:4] C,8- | 
[V:5] z8 | 
[V:1] c6B2 | 
[V:2] c3defge | 
[V:3] A4G4 | 
[V:4] C,8 | 
[V:5] z8 | 
[V:1] A2GFE4 | 
[V:2] f2d4^c2 | 
[V:3] F2G2A4 | 
[V:4] z8 | 
[V:5] z8 | 
[V:1] D8 | 
[V:2] d8 | 
[V:3] B4G4 | 
[V:4] z8 | 
[V:5] G,8 | 
[V:1] z8 | 
[V:2] z4g4 | 
[V:3] z4G4 | 
[V:4] z8 | 
[V:5] G,4G,4 | 
[V:1] z8 | 
[V:2] g4e4 | 
[V:3] G4G4 | 
[V:4] C8 | 
[V:5] C,4C,4 | 
[V:1] z8 | 
[V:2] c3BA2A2 | 
[V:3] A2A4G2 | 
[V:4] C4C4 | 
[V:5] F,6E,2 | 
[V:1] z8 | 
[V:2] _B2AGFGAF | 
[V:3] F2EDC4 | 
[V:4] F,4F,4 | 
[V:5] D,2C,B,,A,,4 | 
[V:1] d8 | 
[V:2] G8 | 
[V:3] D8- | 
[V:4] _B,6A,2 | 
[V:5] G,,8- | 
[V:1] d4d4 | 
[V:2] z4g4 | 
[V:3] D8 | 
[V:4] G,2F,E,D,4 | 
[V:5] G,,8 | 
[V:1] G4G4 | 
[V:2] g2g2e4 | 
[V:3] z4G4 | 
[V:4] C,8- | 
[V:5] z8 | 
[V:1] c6B2 | 
[V:2] c3defge | 
[V:3] A4G4 | 
[V:4] C,8 | 
[V:5] z8 | 
[V:1] A2GFE4 | 
[V:2] f2d4^c2 | 
[V:3] F2G2A4 | 
[V:4] z8 | 
[V:5] z8 | 
[V:1] D3EF2G2 | 
[V:2] d4d2e2- | 
[V:3] B3cd2c2- | 
[V:4] z8 | 
[V:5] z8 | 
[V:1] A2B2c4 | 
[V:2] edg4^f2 | 
[V:3] cBAGA4 | 
[V:4] z8 | 
[V:5] z8 | 
[V:1] B8 | 
[V:2] g8 | 
[V:3] G4z2G2 | 
[V:4] z8 | 
[V:5] z4G,,4 | 
[V:1] z8 | 
[V:2] z8 | 
[V:3] E2F4ED | 
[V:4] z8 | 
[V:5] A,,4B,,4 | 
[V:1] z8 | 
[V:2] z8 | 
[V:3] EDG4^F2 | 
[V:4] z4C,4 | 
[V:5] C,4A,,4 | 
[V:1] z8 | 
[V:2] z8 | 
[V:3] G8 | 
[V:4] D,4E,4 | 
[V:5] G,,4z2G,,2 | 
[V:1] z8 | 
[V:2] z8 | 
[V:3] z2c2B2G2- | 
[V:4] F,4D,4 | 
[V:5] A,,4B,,4 | 
[V:1] z8 | 
[V:2] z8 | 
[V:3] G2A3BcA | 
[V:4] C,4z2C,2 | 
[V:5] C,4A,,4 | 
[V:1] z4G4 | 
[V:2] z4g4 | 
[V:3] B4G4 | 
[V:4] D,4E,4 | 
[V:5] G,,8 | 
[V:1] A4B4 | 
[V:2] f2d3efd | 
[V:3] z4F4 | 
[V:4] F,4D,4 | 
[V:5] z8 | 
[V:1] c4A4 | 
[V:2] e2e2c4 | 
[V:3] G4A2c2- | 
[V:4] C,8 | 
[V:5] z8 | 
[V:1] G4z2G2 | 
[V:2] z2c2d2e2 | 
[V:3] c2BAB2c2 | 
[V:4] z8 | 
[V:5] z8 | 
[V:1] A4B4 | 
[V:2] f4d4 | 
[V:3] F4G4 | 
[V:4] z8 | 
[V:5] z8 | 
[V:1] c4A4 | 
[V:2] c4f4 | 
[V:3] C4z4 | 
[V:4] z8 | 
[V:5] z4D,4 | 
[V:1] G2B2A2c2 | 
[V:2] e2g3fed | 
[V:3] z8 | 
[V:4] z8 | 
[V:5] E,4F,4 | 
[V:1] BAGFG4 | 
[V:2] e2d4^c2 | 
[V:3] z8 | 
[V:4] z4G,4 | 
[V:5] G,4E,4 | 
[V:1] F4z4 | 
[V:2] d4z2f2 | 
[V:3] z8 | 
[V:4] A,4B,4 | 
[V:5] D,4z2D,2 | 
[V:1] z2G2A2c2 | 
[V:2] e2g2f2ed | 
[V:3] z8 | 
[V:4] C4A,4 | 
[V:5] E,4F,4 | 
[V:1] BAGFG4 | 
[V:2] e2d4c2 | 
[V:3] z4C4 | 
[V:4] G,4z2G,2 | 
[V:5] G,4E,4 | 
[V:1] F2A2G2B2 | 
[V:2] d2d2e2f2 | 
[V:3] F4G2F2 | 
[V:4] A,4B,4 | 
[V:5] D,2F,2E,2D,2 | 
[V:1] A2G3^FFE | 
[V:2] e4d4 | 
[V:3] G2E2F4 | 
[V:4] C4A,4 | 
[V:5] C,4D,4 | 
[V:1] G8 ||  
[V:2] B8 ||  
[V:3] D8 ||  
[V:4] G,8 ||  
[V:5] G,,8 ||  
[V:1]  [K:C] [K:clef=treble][M:2/1]z8 | 
[V:2]  [K:C] [K:clef=treble-8][M:2/1]G4GABc | 
[V:3]  [K:C] [K:clef=treble-8][M:2/1]G8 | 
[V:4]  [K:C] [K:clef=bass][M:2/1]z8 | 
[V:5]  [K:C] [K:clef=bass][M:2/1]z8 | 
[V:1] z8 | 
[V:2] B2G2A2B2 | 
[V:3] E3FD4 | 
[V:4] z8 | 
[V:5] z8 | 
[V:1] E4EFGA | 
[V:2] c3dece2- | 
[V:3] C8 | 
[V:4] z8 | 
[V:5] z4z2C,2 | 
[V:1] G2FED2G2 | 
[V:2] e2dcB4 | 
[V:3] z8 | 
[V:4] z8 | 
[V:5] C,D,E,F,G,4 | 
[V:1] E2G2A2c2- | 
[V:2] c3de2f2 | 
[V:3] z8 | 
[V:4] z4z2F,2 | 
[V:5] C,4z4 | 
[V:1] c2BAG4 | 
[V:2] c2f4e2 | 
[V:3] z4C4 | 
[V:4] F,G,A,B,C4 | 
[V:5] z8 | 
[V:1] A2F2G2A2- | 
[V:2] f2d2e2f2- | 
[V:3] F4E2D2 | 
[V:4] F,4z4 | 
[V:5] z4z2D,2 | 
[V:1] A2GFE2A2 | 
[V:2] f2edc4 | 
[V:3] A4A4 | 
[V:4] z8 | 
[V:5] D,E,F,G,A,4 | 
[V:1] F2A2B2d2- | 
[V:2] d3ef2g2 | 
[V:3] B2A2d3c | 
[V:4] z4z2G,2 | 
[V:5] D,4z4 | 
[V:1] d2cBA4 | 
[V:2] d2g4^f2 | 
[V:3] BAG2D4 | 
[V:4] G,A,B,CD4 | 
[V:5] z8 | 
[V:1] B8 | 
[V:2] g8 | 
[V:3] z2G2G3F | 
[V:4] G,4z4 | 
[V:5] z2G,,2G,,3A,, | 
[V:1] z8 | 
[V:2] z2g2g3f | 
[V:3] D2E3FGA | 
[V:4] z8 | 
[V:5] B,,2C,3D,E,F, | 
[V:1] z8 | 
[V:2] d2g4g2- | 
[V:3] B2c4BA | 
[V:4] z2C,2C,3D, | 
[V:5] G,4G,2E,2- | 
[V:1] z8 | 
[V:2] g2fed3e | 
[V:3] G2A4G2 | 
[V:4] E,2F,3G,A,B, | 
[V:5] E,2D,C,B,,4 | 
[V:1] z8 | 
[V:2] f2e2ABcd | 
[V:3] A8 | 
[V:4] C4C2A,2- | 
[V:5] A,,8 | 
[V:1] z8 | 
[V:2] eAd4^c2 | 
[V:3] z8 | 
[V:4] A,2G,F,E,4 | 
[V:5] z8 | 
[V:1] z8 | 
[V:2] d8 | 
[V:3] z2B2B3c | 
[V:4] D,8 | 
[V:5] z2G,,2G,,3A,, | 
[V:1] z8 | 
[V:2] z2g2g3f | 
[V:3] d2G3FGA | 
[V:4] z8 | 
[V:5] B,,2C,3D,E,F, | 
[V:1] z8 | 
[V:2] d2g4g2- | 
[V:3] B2c4BA | 
[V:4] z2C,2C,3D, | 
[V:5] G,4G,2E,2- | 
[V:1] z8 | 
[V:2] g2fed3e | 
[V:3] G2A4G2 | 
[V:4] E,2F,3G,A,B, | 
[V:5] E,2D,C,B,,4 | 
[V:1] z8 | 
[V:2] f2e3dcB | 
[V:3] A8 | 
[V:4] C4C2A,2- | 
[V:5] A,,8- | 
[V:1] z8 | 
[V:2] A2d4^c2 | 
[V:3] z4A4 | 
[V:4] A,2G,F,E,4 | 
[V:5] A,,8 | 
[V:1] z4A4 | 
[V:2] d8 | 
[V:3] A2A2F3E | 
[V:4] D,8- | 
[V:5] z8 | 
[V:1] A2A2F3E | 
[V:2] z8 | 
[V:3] D2A2_B2A2 | 
[V:4] D,8 | 
[V:5] z8 | 
[V:1] D2A2_B2A2- | 
[V:2] z8 | 
[V:3] _BAGFG2F2 | 
[V:4] z8 | 
[V:5] z8 | 
[V:1] A2GFG4 | 
[V:2] z8 | 
[V:3] D4E4 | 
[V:4] z8 | 
[V:5] z8 | 
[V:1] F4D2F2- | 
[V:2] z8 | 
[V:3] D8 | 
[V:4] z8 | 
[V:5] A,8 | 
[V:1] FED4^C2 | 
[V:2] z8 | 
[V:3] z8 | 
[V:4] z8 | 
[V:5] F,3G,E,4 | 
[V:1] D2F2G2A2- | 
[V:2] z8 | 
[V:3] z8 | 
[V:4] D8 | 
[V:5] D,2D,2G,2F,2 | 
[V:1] A2G4^F2 | 
[V:2] z8 | 
[V:3] z8 | 
[V:4] B,3CA,4 | 
[V:5] G,4D,4 | 
[V:1] G2B2c2d2- | 
[V:2] g8 | 
[V:3] z8 | 
[V:4] G,2G,2C2B,2 | 
[V:5] G,,4z4 | 
[V:1] dcc4B2 | 
[V:2] e3fd4 | 
[V:3] z4z2d2 | 
[V:4] C4G,4 | 
[V:5] z8 | 
[V:1] c8 | 
[V:2] c4z2e2 | 
[V:3] e4c4 | 
[V:4] C,4z4 | 
[V:5] z8 | 
[V:1] z8 | 
[V:2] fedcd2g2- | 
[V:3] z2A2_BAGF | 
[V:4] z8 | 
[V:5] z8 | 
[V:1] z8 | 
[V:2] gfe2d4 | 
[V:3] G2c4B2 | 
[V:4] z8 | 
[V:5] z4z2G,2 | 
[V:1] z8 | 
[V:2] c8 | 
[V:3] c8- | 
[V:4] z8 | 
[V:5] A,4F,4 | 
[V:1] z2G2A4 | 
[V:2] z8 | 
[V:3] c8 | 
[V:4] z4z2C2 | 
[V:5] z2E,2F,3E, | 
[V:1] F4z2G2 | 
[V:2] z8 | 
[V:3] z8 | 
[V:4] D4B,4 | 
[V:5] D,E,F,D,E,F,G,2- | 
[V:1] A4D2G2- | 
[V:2] z8 | 
[V:3] z8 | 
[V:4] z2A,2B,3A, | 
[V:5] G,2^F,2G,4 | 
[V:1] G2FEFEDC | 
[V:2] z8 | 
[V:3] z8 | 
[V:4] G,A,B,G,A,B,C2- | 
[V:5] G,2z2z4 | 
[V:1] D4C4 | 
[V:2] z8 | 
[V:3] z4z2c2 | 
[V:4] C2B,2C4 | 
[V:5] z2G,2A,4 | 
[V:1] z4z2G2 | 
[V:2] z8 | 
[V:3] d4B4 | 
[V:4] z8 | 
[V:5] F,4z2E,2 | 
[V:1] A4F4 | 
[V:2] z8 | 
[V:3] A6F2 | 
[V:4] z2C2D4 | 
[V:5] F,3E,D,E,F,D, | 
[V:1] z2G2A4 | 
[V:2] z8 | 
[V:3] G2B2A4 | 
[V:4] B,4z2A,2 | 
[V:5] E,F,G,4^F,2 | 
[V:1] D2G4FE | 
[V:2] z8 | 
[V:3] G8 | 
[V:4] B,3A,G,A,B,G, | 
[V:5] G,8 | 
[V:1] FEDCD4 | 
[V:2] z8 | 
[V:3] z8 | 
[V:4] A,B,C4B,2 | 
[V:5] z8 | 
[V:1] C4c4- | 
[V:2] e8 | 
[V:3] G8 | 
[V:4] C8 | 
[V:5] C,8 | 
[V:1] c4c4 | 
[V:2] e8 | 
[V:3] E8 | 
[V:4] z8 | 
[V:5] C,8 | 
[V:1] A8- | 
[V:2] f8 | 
[V:3] A8 | 
[V:4] F,8 | 
[V:5] D,8- | 
[V:1] A8 | 
[V:2] f4d4- | 
[V:3] d8 | 
[V:4] F,8 | 
[V:5] D,8 | 
[V:1] B8 | 
[V:2] d4g4- | 
[V:3] B8- | 
[V:4] G,8- | 
[V:5] G,,8- | 
[V:1] d8 | 
[V:2] g2fed4 | 
[V:3] B8 | 
[V:4] G,8 | 
[V:5] G,,8 | 
[V:1] c6BA | 
[V:2] e8 | 
[V:3] c4G4 | 
[V:4] C,8- | 
[V:5] z4C,4- | 
[V:1] G4c4 | 
[V:2] e8 | 
[V:3] c8 | 
[V:4] C,8 | 
[V:5] C,4C,4 | 
[V:1] A4d4 | 
[V:2] f8 | 
[V:3] F6G2 | 
[V:4] z4F,4- | 
[V:5] D,6C,B,, | 
[V:1] c4A4 | 
[V:2] z4d4- | 
[V:3] A4D4 | 
[V:4] F,4F,4 | 
[V:5] A,,4D,4 | 
[V:1] B8 | 
[V:2] d4d4- | 
[V:3] z4G4 | 
[V:4] G,6F,E, | 
[V:5] G,,8 | 
[V:1] z4G4 | 
[V:2] d4d4 | 
[V:3] A4B4 | 
[V:4] D,4G,4 | 
[V:5] z4G,4 | 
[V:1] G4G4 | 
[V:2] e4g4 | 
[V:3] c8- | 
[V:4] C,8 | 
[V:5] G,4E,4 | 
[V:1] A3GA2B2 | 
[V:2] f8 | 
[V:3] c8 | 
[V:4] z4C4 | 
[V:5] F,3E,F,2G,2 | 
[V:1] c6BA | 
[V:2] e4e2f2- | 
[V:3] z8 | 
[V:4] C4A,4 | 
[V:5] A,6G,F, | 
[V:1] G4G4 | 
[V:2] fed2G4 | 
[V:3] z8 | 
[V:4] B,3A,B,2C2 | 
[V:5] G,F,E,D,E,4 | 
[V:1] F4FGA_B | 
[V:2] A8 | 
[V:3] z4F4- | 
[V:4] D6CB, | 
[V:5] D,4z4 | 
[V:1] A2G4^F2 | 
[V:2] z4z2d2 | 
[V:3] F2G2D4 | 
[V:4] CB,A,G,A,4 | 
[V:5] z4z2D,2 | 
[V:1] G8 | 
[V:2] (3c2d2e2(3A2B2c2 | 
[V:3] (3G2G2G2(3E2F2G2 | 
[V:4] G,4z4 | 
[V:5] (3:2:5E,4E,2C,2D,2E,2 | 
[V:1] z4z2G2 | 
[V:2] (3:2:5d2e3dd4^c2 | 
[V:3] (3C2D2E2(3F2G2E2 | 
[V:4] z4z2G,2 | 
[V:5] (3:2:5A,,3B,,C,2D,2E,4 | 
[V:1] (3F2G2A2(3D2E2F2- | 
[V:2] d8 | 
[V:3] F2D2D4 | 
[V:4] (3:2:5A,4A,2F,2G,2A,2 | 
[V:5] D,8 | 
[V:1] (3:2:5F3GA2G4^F2 | 
[V:2] z4d4 | 
[V:3] z4z2A2 | 
[V:4] (3:2:5D,3E,F,2G,2A,4 | 
[V:5] D,8 | 
[V:1] G8 | 
[V:2] (3:2:5d4d2B2c2d2 | 
[V:3] (3B2c2d2(3G2A2B2 | 
[V:4] G,8- | 
[V:5] z2G,,2G,,2G,,2 | 
[V:1] G8- | 
[V:2] (3:2:2e2c4d4- | 
[V:3] (3E2F2G2D2G2- | 
[V:4] G,8- | 
[V:5] C,4B,,4 | 
[V:1] G8 |]  
[V:2] d2B2B4 |]  
[V:3] G2D2D4 |]  
[V:4] G,8 |]  
[V:5] G,,8 |]  



